assets/images/sections/steps/slide-star.svg

<svg width="134" height="134" viewBox="0 0 134 134" fill="none" xmlns="http://www.w3.org/2000/svg">
<path opacity="0.2" d="M67 0L71.2123 41.7573L88.7549 3.63025L79.1803 44.4928L108.152 14.1276L85.8284 49.6672L123.09 30.3545L90.4362 56.7199L131.95 50.5525L92.5043 64.8867L133.771 72.5328L91.8086 73.2824L128.357 93.9136L88.4245 80.9973L116.294 112.378L82.7188 87.1955L98.8885 125.925L75.3096 91.2051L78.0278 133.086L67 92.5917L55.9722 133.086L58.6904 91.2051L35.1115 125.925L51.2812 87.1955L17.7065 112.378L45.5755 80.9973L5.64319 93.9136L42.1914 73.2824L0.228836 72.5328L41.4957 64.8867L2.05018 50.5525L43.5638 56.7199L10.9098 30.3545L48.1716 49.6672L25.8477 14.1276L54.8197 44.4928L45.2451 3.63025L62.7877 41.7573L67 0Z" fill="#89D3C1"/>
</svg>

<svg width="134" height="134" fill="none" xmlns="http://www.w3.org/2000/svg"><path opacity=".2" d="M67 0l4.212 41.757L88.755 3.63 79.18 44.493l28.972-30.365-22.324 35.54 37.262-19.313L90.436 56.72l41.514-6.167-39.446 14.334 41.267 7.646-41.962.75 36.548 20.63-39.933-12.916 27.87 31.381-33.575-25.183 16.17 38.73-23.58-34.72 2.719 41.881L67 92.592l-11.028 40.494 2.718-41.88-23.578 34.719 16.17-38.73-33.575 25.183 27.868-31.38L5.643 93.913l36.548-20.632-41.962-.75 41.267-7.645L2.05 50.553l41.514 6.167L10.91 30.355l37.262 19.312-22.324-35.54L54.82 44.494 45.245 3.63l17.543 38.127L67 0z" fill="#89D3C1"/></svg>
